X:1
T:Title
%%score { ( 1 3 ) | ( 2 4 ) }
L:1/8
M:4/4
K:D
V:1 treble nm="Grand Piano"
V:3 treble 
V:2 bass 
V:4 bass 
V:1
 z4 z2[Q:1/4=94] [DF]>[EG] | [FA]>[FA] [FA]>[FA] [FA]2 [DF]>[FA] |[M:3/4] B>B B>B B2 | %3
[M:1/4] (3Bcd |[M:4/4] [Fd]>[FA] [FA]>[FA] [FA]2 (3[FA][EG][DF] |[M:3/4] [CE]6 |[M:1/4] F>[EG] | %7
[M:4/4] [FA]>[FA] [FA]>[FA] [FA]2 [DF]>[FA] |[M:3/4] B>B B>B B2 |[M:1/4] (3Bcd | %10
[M:4/4] c>c c>c B2 (3[EGc][EGB][EGc] |[M:3/4] [DFd]6 |[M:1/4] (3A^GA |[M:4/4] F6 z2 |[M:3/4] B6 | %15
[M:1/4] (3Bcd |[M:4/4] [Fd]>[FA] [FA]>[FA] [FA]2 (3[FA][EG][DF] |[M:3/4] [CE]6 |[M:1/4] (3A^GA | %19
[M:4/4] F6 z2 |[M:3/4] B6 |[M:1/4] (3Bcd |[M:4/4] c>c c>c c2 (3[EGc][EGB][EGc] | %23
[M:7/8] d-d-d- d- d3 |] %24
V:2
 z4 z2 [D,A,]>[D,A,] | [D,D]>[D,D] [D,D]>[D,D] [D,D]2 [D,A,]>[D,D] | %2
[M:3/4][K:treble] [G,DG]>[G,DG] [G,DG]>[G,DG] [G,DG]2 |[M:1/4] (3[G,-DG][G,CG][G,B,G] | %4
[M:4/4][K:bass] [D,A,]>[D,A,] [D,A,]>[D,A,] [D,D]2 (3[D,D][D,A,][D,A,] | %5
[M:3/4] [A,,A,]2 (3A,,C,E, A,,2 |[M:1/4] [D,A,D]>[D,A,] | %7
[M:4/4] [D,D]>[D,D] [D,D]>[D,D] [D,D]2 [D,A,]>[D,D] | %8
[M:3/4][K:treble] [G,DG]>[G,DG] [G,DG]>[G,DG] [G,DG]2 |[M:1/4] (3[G,-DG-][G,CG][G,B,G] | %10
[M:4/4] [A,EG]>[A,EG] [A,EG]>[A,EG] [A,EG]2[K:bass] (3A,,A,,A,, |[M:3/4] D,6 | %12
[M:1/4][K:treble] (3F=F^F |[M:4/4] D6[K:bass] z2[K:treble] |[M:3/4] G6 | %15
[M:1/4] (3[G,-DG-][G,CG][G,B,G] | %16
[M:4/4][K:bass] [D,A,]>[D,D] [D,D]>[D,D] [D,D]2 (3[D,D][D,A,][D,A,] | %17
[M:3/4] [A,,A,]2 (3A,,C,E, A,,2 |[M:1/4][K:treble] (3F=F^F |[M:4/4] D6[K:bass] z2[K:treble] | %20
[M:3/4] G6 |[M:1/4] (3[G,DG-][G,CG][G,B,G] | %22
[M:4/4] [A,EG]>[A,EG] [A,EG]>[A,EG] [A,EG]2[K:bass] (3A,,A,,A,, |[M:7/8] z2 D/CB,/ A,3 |] %24
V:3
 x8 | x8 |[M:3/4] x6 |[M:1/4] x2 |[M:4/4] x8 |[M:3/4] z2 (3A,A,A, A,2 |[M:1/4] x2 |[M:4/4] x8 | %8
[M:3/4] x6 |[M:1/4] x2 |[M:4/4] x8 |[M:3/4] x6 |[M:1/4] x2 |[M:4/4] z2 (3A,A,A, A,2 (3FGA | %14
[M:3/4] z2 (3DDD D2 |[M:1/4] x2 |[M:4/4] x8 |[M:3/4] z2 (3A,A,A, A,2 |[M:1/4] x2 | %19
[M:4/4] z2 (3A,A,A, A,2 (3FGA |[M:3/4] z2 (3DDD D2 |[M:1/4] x2 |[M:4/4] x8 | %23
[M:7/8] [DF]2 B/AG/ F3 |] %24
V:4
 x8 | x8 |[M:3/4][K:treble] x6 |[M:1/4] x2 |[M:4/4][K:bass] x8 |[M:3/4] x6 |[M:1/4] x2 | %7
[M:4/4] x8 |[M:3/4][K:treble] x6 |[M:1/4] x2 |[M:4/4] x6[K:bass] x2 |[M:3/4] x6 | %12
[M:1/4][K:treble] x2 |[M:4/4] z2[K:bass] (3D,D,D, D,2 (3D[K:treble]EF |[M:3/4] z2 (3G,G,G, G,2 | %15
[M:1/4] x2 |[M:4/4][K:bass] x8 |[M:3/4] x6 |[M:1/4][K:treble] x2 | %19
[M:4/4] z2[K:bass] (3D,D,D, D,2 (3D[K:treble]EF |[M:3/4] z2 (3G,G,G, G,2 |[M:1/4] x2 | %22
[M:4/4] x6[K:bass] x2 |[M:7/8] D,-D,-D,- D,- D,3 |] %24

